_inc/systems/logos/imageviewer.svg

<?xml version="1.0" encoding="utf-8"?>
<svg viewBox="0 0 264 30" xmlns="http://www.w3.org/2000/svg">
  <path d="M 48.3 25.182 L 50.212 19.638 C 52.123 20.154 53.876 20.411 55.469 20.411 C 57.062 20.411 58.348 20.345 59.326 20.211 L 59.599 18.532 L 56.766 18.261 C 54.604 18.06 53.071 17.579 52.169 16.817 C 51.274 16.056 50.827 14.982 50.827 13.593 C 50.827 12.988 50.894 12.317 51.031 11.577 C 51.555 8.711 52.502 6.74 53.876 5.665 C 55.256 4.592 57.392 4.054 60.282 4.054 C 63.172 4.054 65.721 4.333 67.928 4.893 L 66.153 10.268 C 64.173 9.932 62.58 9.763 61.374 9.763 C 60.168 9.763 59.144 9.821 58.302 9.932 L 58.029 11.577 L 60.316 11.812 C 62.637 12.059 64.287 12.603 65.265 13.448 C 66.244 14.283 66.734 15.407 66.734 16.817 C 66.734 18.25 66.415 19.73 65.778 21.252 C 65.459 22.036 65.109 22.692 64.731 23.222 C 64.359 23.745 63.881 24.189 63.297 24.555 C 62.72 24.927 62.193 25.208 61.715 25.394 C 61.237 25.588 60.634 25.729 59.906 25.82 C 58.837 25.977 57.528 26.054 55.981 26.054 C 53.159 26.054 50.599 25.764 48.3 25.182 Z M 83.221 19.539 L 82.674 25.182 C 81.218 25.764 79.375 26.054 77.144 26.054 C 74.277 26.054 72.221 25.506 70.977 24.409 C 69.74 23.311 69.123 21.621 69.123 19.337 C 69.123 18.374 69.282 16.952 69.601 15.071 C 70.284 11.22 71.459 8.421 73.128 6.675 C 74.804 4.927 77.452 4.054 81.07 4.054 C 81.912 4.054 82.876 4.14 83.96 4.311 C 85.038 4.476 85.826 4.681 86.327 4.927 L 84.415 10.066 C 83.073 9.752 81.818 9.595 80.649 9.595 C 79.474 9.595 78.635 9.708 78.135 9.932 C 77.634 10.156 77.327 10.604 77.213 11.275 L 75.643 20.075 C 76.461 20.255 77.304 20.345 78.168 20.345 C 80.011 20.345 81.696 20.075 83.221 19.539 Z M 101.039 18.564 L 103.292 25.551 L 96.158 25.551 L 94.588 19.304 L 93.188 19.304 L 92.096 25.551 L 85.61 25.551 L 89.365 4.558 L 99.605 4.558 C 103.497 4.558 105.443 6.271 105.443 9.697 C 105.443 11.108 105.226 12.452 104.794 13.728 C 103.997 16.145 102.746 17.759 101.039 18.564 Z M 96.158 9.932 L 94.86 9.932 L 94.11 14.132 L 95.611 14.132 C 96.385 14.132 96.969 14.049 97.364 13.884 C 97.766 13.713 98.039 13.231 98.183 12.441 C 98.335 11.643 98.411 11.151 98.411 10.973 C 98.411 10.525 98.236 10.237 97.888 10.111 C 97.531 9.99 96.955 9.932 96.158 9.932 Z M 121.316 12.754 L 120.428 17.624 L 113.943 17.624 L 113.498 20.177 L 121.452 20.177 L 120.496 25.551 L 106.057 25.551 L 109.812 4.558 L 124.08 4.558 L 122.305 9.932 L 115.308 9.932 L 114.83 12.754 L 121.316 12.754 Z M 139.407 12.754 L 138.519 17.624 L 132.034 17.624 L 131.59 20.177 L 139.544 20.177 L 138.588 25.551 L 124.148 25.551 L 127.903 4.558 L 142.172 4.558 L 140.397 9.932 L 133.399 9.932 L 132.922 12.754 L 139.407 12.754 Z M 160.263 25.551 L 154.153 25.551 L 150.672 18.095 C 150.58 17.938 150.535 17.717 150.535 17.433 C 150.535 17.157 150.558 16.84 150.603 16.483 L 150.33 16.483 L 148.726 25.551 L 142.24 25.551 L 145.995 4.558 L 152.105 4.558 L 155.587 12.015 C 155.655 12.172 155.689 12.392 155.689 12.676 C 155.689 12.952 155.667 13.268 155.621 13.626 L 155.894 13.626 L 157.533 4.558 L 164.018 4.558 L 160.263 25.551 Z M 163.984 25.182 L 165.896 19.638 C 167.807 20.154 169.56 20.411 171.153 20.411 C 172.745 20.411 174.031 20.345 175.01 20.211 L 175.283 18.532 L 172.449 18.261 C 170.288 18.06 168.755 17.579 167.853 16.817 C 166.957 16.056 166.51 14.982 166.51 13.593 C 166.51 12.988 166.578 12.317 166.715 11.577 C 167.238 8.711 168.186 6.74 169.56 5.665 C 170.94 4.592 173.075 4.054 175.966 4.054 C 178.856 4.054 181.404 4.333 183.612 4.893 L 181.837 10.268 C 179.857 9.932 178.264 9.763 177.058 9.763 C 175.852 9.763 174.828 9.821 173.985 9.932 L 173.713 11.577 L 175.999 11.812 C 178.321 12.059 179.971 12.603 180.949 13.448 C 181.928 14.283 182.417 15.407 182.417 16.817 C 182.417 18.25 182.099 19.73 181.461 21.252 C 181.143 22.036 180.793 22.692 180.415 23.222 C 180.042 23.745 179.564 24.189 178.981 24.555 C 178.404 24.927 177.877 25.208 177.399 25.394 C 176.921 25.588 176.318 25.729 175.59 25.82 C 174.521 25.977 173.212 26.054 171.664 26.054 C 168.843 26.054 166.282 25.764 163.984 25.182 Z M 202.079 25.551 L 195.593 25.551 L 196.89 18.128 L 192.009 18.128 L 190.712 25.551 L 184.226 25.551 L 187.981 4.558 L 194.467 4.558 L 193.135 11.98 L 198.017 11.98 L 199.348 4.558 L 205.834 4.558 L 202.079 25.551 Z M 214.914 11.577 L 213.343 20.311 L 216.04 20.311 C 216.928 20.311 217.588 20.206 218.02 19.998 C 218.452 19.781 218.737 19.293 218.873 18.532 L 220.443 9.798 L 217.713 9.798 C 216.848 9.798 216.2 9.902 215.767 10.111 C 215.334 10.328 215.05 10.817 214.914 11.577 Z M 218.84 4.054 C 221.729 4.054 223.789 4.611 225.018 5.722 C 226.247 6.828 226.861 8.533 226.861 10.839 C 226.861 13.145 226.489 15.561 225.746 18.083 C 225.01 20.599 223.837 22.554 222.23 23.95 C 220.629 25.354 218.285 26.054 215.198 26.054 C 212.118 26.054 209.964 25.502 208.735 24.398 C 207.506 23.285 206.892 21.577 206.892 19.27 C 206.892 18.173 207.051 16.725 207.37 14.925 C 207.689 13.12 208.109 11.562 208.633 10.257 C 209.156 8.943 209.862 7.805 210.749 6.842 C 212.456 4.984 215.153 4.054 218.84 4.054 Z M 246.011 4.558 L 245.021 9.932 L 240.311 9.932 L 237.545 25.551 L 231.059 25.551 L 233.825 9.932 L 229.148 9.932 L 230.138 4.558 L 246.011 4.558 Z M 244.372 25.182 L 246.284 19.638 C 248.195 20.154 249.948 20.411 251.541 20.411 C 253.133 20.411 254.419 20.345 255.398 20.211 L 255.671 18.532 L 252.838 18.261 C 250.676 18.06 249.143 17.579 248.241 16.817 C 247.345 16.056 246.898 14.982 246.898 13.593 C 246.898 12.988 246.966 12.317 247.103 11.577 C 247.626 8.711 248.574 6.74 249.948 5.665 C 251.328 4.592 253.463 4.054 256.354 4.054 C 259.244 4.054 261.792 4.333 264 4.893 L 262.225 10.268 C 260.245 9.932 258.652 9.763 257.446 9.763 C 256.24 9.763 255.216 9.821 254.374 9.932 L 254.101 11.577 L 256.388 11.812 C 258.709 12.059 260.359 12.603 261.337 13.448 C 262.316 14.283 262.805 15.407 262.805 16.817 C 262.805 18.25 262.487 19.73 261.85 21.252 C 261.531 22.036 261.181 22.692 260.803 23.222 C 260.43 23.745 259.952 24.189 259.369 24.555 C 258.792 24.927 258.265 25.208 257.787 25.394 C 257.309 25.588 256.706 25.729 255.978 25.82 C 254.909 25.977 253.6 26.054 252.052 26.054 C 249.231 26.054 246.671 25.764 244.372 25.182 Z" style="white-space: pre; fill: rgb(255, 255, 255);"/>
  <path d="M 35.727 0 L 2.749 0 C 1.23 0 0 1.221 0 2.728 L 0 27.272 C 0 28.778 1.23 30 2.749 30 L 35.727 30 C 37.245 30 38.475 28.778 38.475 27.272 L 38.475 2.728 C 38.475 1.221 37.245 0 35.727 0 Z M 8.245 5.454 C 10.36 5.454 11.682 7.727 10.625 9.545 C 9.568 11.363 6.922 11.363 5.865 9.545 C 5.623 9.131 5.496 8.66 5.496 8.182 C 5.496 6.677 6.728 5.454 8.245 5.454 Z M 32.979 24.545 L 5.496 24.545 L 5.496 21.817 L 10.993 16.364 L 13.741 19.091 L 24.734 8.182 L 32.979 16.364 L 32.979 24.545 Z" style="fill: rgb(255, 255, 255);"/>
</svg>

<svg xmlns="http://www.w3.org/2000/svg" viewBox="0 0 264 30"><path d="m48.3 25.18 1.91-5.54q2.87.77 5.26.77 2.4 0 3.86-.2l.27-1.68-2.83-.27q-3.25-.3-4.6-1.44a4 4 0 0 1-1.34-3.23q0-.9.2-2.01.78-4.3 2.85-5.91t6.4-1.62 7.65.84l-1.78 5.38q-2.97-.5-4.78-.5-1.8 0-3.07.16l-.27 1.65 2.29.23q3.48.38 4.95 1.64a4.2 4.2 0 0 1 1.46 3.37q0 2.15-.95 4.43a10 10 0 0 1-1.05 1.97q-.56.79-1.43 1.34-.86.56-1.58.83-.73.3-1.81.43-1.6.23-3.93.23-4.23 0-7.68-.87m34.92-5.64-.55 5.64q-2.18.87-5.53.87-4.3 0-6.16-1.64-1.86-1.65-1.86-5.07 0-1.45.48-4.27 1.02-5.77 3.53-8.4 2.5-2.61 7.94-2.62 1.26 0 2.89.26 1.62.25 2.37.62l-1.91 5.14q-2.02-.48-3.77-.47a7 7 0 0 0-2.52.33q-.74.34-.92 1.35l-1.57 8.8q1.23.27 2.53.27 2.77 0 5.05-.81m17.82-.98 2.25 7h-7.13l-1.57-6.26h-1.4l-1.1 6.25h-6.48l3.75-21h10.25q5.83 0 5.83 5.15 0 2.1-.65 4.03-1.2 3.62-3.75 4.83m-4.88-8.63h-1.3l-.75 4.2h1.5q1.17 0 1.75-.25.6-.26.82-1.44a12 12 0 0 0 .23-1.47q0-.67-.52-.86a6 6 0 0 0-1.73-.18m25.16 2.82-.9 4.87h-6.48l-.44 2.56h7.95l-.95 5.37h-14.44l3.75-21h14.27l-1.77 5.38h-7l-.48 2.82zm18.09 0-.9 4.87h-6.48l-.44 2.56h7.95l-.95 5.37h-14.44l3.75-21h14.27l-1.77 5.38h-7l-.48 2.82zm20.85 12.8h-6.1l-3.49-7.46q-.13-.23-.13-.66 0-.4.06-.95h-.27l-1.6 9.07h-6.49l3.75-21h6.11l3.49 7.47q.1.23.1.66 0 .4-.07.95h.27l1.64-9.07h6.49zm3.72-.37 1.92-5.54q2.86.77 5.25.77t3.86-.2l.27-1.68-2.83-.27q-3.25-.3-4.6-1.44a4 4 0 0 1-1.34-3.23q0-.9.2-2.01.8-4.3 2.85-5.91 2.07-1.62 6.4-1.62t7.65.84l-1.77 5.38q-2.97-.5-4.78-.5-1.8 0-3.07.16l-.28 1.65 2.29.23q3.48.38 4.95 1.64a4.2 4.2 0 0 1 1.47 3.37q0 2.15-.96 4.43a10 10 0 0 1-1.05 1.97 5 5 0 0 1-1.43 1.34q-.86.56-1.58.83-.72.3-1.81.43-1.6.23-3.93.23a31 31 0 0 1-7.68-.87m38.1.37h-6.49l1.3-7.42h-4.88l-1.3 7.42h-6.48l3.75-21h6.49l-1.34 7.43h4.89l1.33-7.42h6.48zm12.83-13.97-1.57 8.73h2.7q1.34 0 1.98-.31.65-.32.85-1.47l1.57-8.73h-2.73q-1.3 0-1.94.31-.66.32-.86 1.47m3.93-7.53q4.33 0 6.18 1.67 1.84 1.65 1.84 5.12 0 3.46-1.11 7.24a12 12 0 0 1-3.52 5.87q-2.4 2.1-7.03 2.1-4.62 0-6.46-1.65-1.85-1.66-1.85-5.13 0-1.64.48-4.34.48-2.72 1.26-4.67a11 11 0 0 1 2.12-3.42q2.55-2.79 8.09-2.79m27.17.5-.99 5.38h-4.7l-2.78 15.62h-6.48l2.76-15.62h-4.67l.99-5.37zm-1.64 20.63 1.91-5.54q2.87.77 5.26.77 2.4 0 3.86-.2l.27-1.68-2.83-.27q-3.24-.3-4.6-1.44a4 4 0 0 1-1.34-3.23q0-.9.2-2.01.79-4.3 2.85-5.91t6.4-1.62 7.65.84l-1.77 5.38q-2.98-.5-4.78-.5t-3.08.16l-.27 1.65 2.29.23q3.48.38 4.95 1.64a4.2 4.2 0 0 1 1.47 3.37q0 2.15-.96 4.43a10 10 0 0 1-1.05 1.97 5 5 0 0 1-1.43 1.34q-.87.56-1.58.83-.72.3-1.81.43-1.6.23-3.93.23-4.23 0-7.68-.87" style="white-space:pre;fill:#fff"/><path d="M35.73 0H2.75A2.74 2.74 0 0 0 0 2.73v24.54C0 28.77 1.23 30 2.75 30h32.98a2.74 2.74 0 0 0 2.75-2.73V2.73c0-1.5-1.23-2.73-2.75-2.73M8.25 5.45a2.73 2.73 0 0 1 2.38 4.1A2.76 2.76 0 0 1 5.5 8.18c0-1.5 1.23-2.73 2.74-2.73m24.73 19.1H5.5v-2.73l5.5-5.46 2.74 2.73 11-10.9 8.24 8.17z" style="fill:#fff"/></svg>
